2 Export/Icons/Outlined/Star.svg

<svg xmlns="http://www.w3.org/2000/svg" xmlns:xlink="http://www.w3.org/1999/xlink" width="24" height="24" viewBox="0 0 24 24">
  <defs>
    <path id="star-a" d="M19.65 9.04l-4.84-.42-1.89-4.45c-.34-.81-1.5-.81-1.84 0L9.19 8.63l-4.83.41c-.88.07-1.24 1.17-.57 1.75l3.67 3.18-1.1 4.72c-.2.86.73 1.54 1.49 1.08l4.15-2.5 4.15 2.51c.76.46 1.69-.22 1.49-1.08l-1.1-4.73 3.67-3.18c.67-.58.32-1.68-.56-1.75zM12 15.4l-3.76 2.27 1-4.28-3.32-2.88 4.38-.38L12 6.1l1.71 4.04 4.38.38-3.32 2.88 1 4.28L12 15.4z"/>
  </defs>
  <g fill="none" fill-rule="evenodd">
    <polygon points="0 0 24 0 24 24 0 24"/>
    <mask id="star-b" fill="#fff">
      <use xlink:href="#star-a"/>
    </mask>
    <use fill="#000" xlink:href="#star-a"/>
    <g fill="#000" mask="url(#star-b)">
      <rect width="24" height="24"/>
    </g>
  </g>
</svg>

<svg xmlns="http://www.w3.org/2000/svg" xmlns:xlink="http://www.w3.org/1999/xlink" width="24" height="24" viewBox="0 0 24 24">
  <defs>
    <path id="star-a" d="M19.65,9.04 L14.81,8.62 L12.92,4.17 C12.58,3.36 11.42,3.36 11.08,4.17 L9.19,8.63 L4.36,9.04 C3.48,9.11 3.12,10.21 3.79,10.79 L7.46,13.97 L6.36,18.69 C6.16,19.55 7.09,20.23 7.85,19.77 L12,17.27 L16.15,19.78 C16.91,20.24 17.84,19.56 17.64,18.7 L16.54,13.97 L20.21,10.79 C20.88,10.21 20.53,9.11 19.65,9.04 L19.65,9.04 Z M12,15.4 L8.24,17.67 L9.24,13.39 L5.92,10.51 L10.3,10.13 L12,6.1 L13.71,10.14 L18.09,10.52 L14.77,13.4 L15.77,17.68 L12,15.4 Z"/>
  </defs>
  <g fill="none" fill-rule="evenodd">
    <polygon points="0 0 24 0 24 24 0 24"/>
    <mask id="star-b" fill="#fff">
      <use xlink:href="#star-a"/>
    </mask>
    <use fill="#000" xlink:href="#star-a"/>
    <g fill="#000" mask="url(#star-b)">
      <rect width="24" height="24"/>
    </g>
  </g>
</svg>
